public/img/phoneIcon.svg

<svg width="24" height="25" viewBox="0 0 24 25" fill="none" xmlns="http://www.w3.org/2000/svg">
<g id="Frame">
<path id="Vector" d="M21.97 18.4599C21.97 18.8199 21.89 19.1899 21.72 19.5499C21.55 19.9099 21.33 20.2499 21.04 20.5699C20.55 21.1099 20.01 21.4999 19.4 21.7499C18.8 21.9999 18.15 22.1299 17.45 22.1299C16.43 22.1299 15.34 21.8899 14.19 21.3999C13.04 20.9099 11.89 20.2499 10.75 19.4199C9.58811 18.57 8.49169 17.634 7.47 16.6199C6.45877 15.6019 5.5261 14.5088 4.68 13.3499C3.86 12.2099 3.2 11.0699 2.72 9.93988C2.24 8.79988 2 7.70988 2 6.66988C2 5.98988 2.12 5.33988 2.36 4.73988C2.6 4.12988 2.98 3.56988 3.51 3.06988C4.15 2.43988 4.85 2.12988 5.59 2.12988C5.87 2.12988 6.15 2.18988 6.4 2.30988C6.66 2.42988 6.89 2.60988 7.07 2.86988L9.39 6.13988C9.57 6.38988 9.7 6.61988 9.79 6.83988C9.88 7.04988 9.93 7.25988 9.93 7.44988C9.93 7.68988 9.86 7.92988 9.72 8.15988C9.59 8.38988 9.4 8.62988 9.16 8.86988L8.4 9.65988C8.29 9.76988 8.24 9.89988 8.24 10.0599C8.24 10.1399 8.25 10.2099 8.27 10.2899C8.3 10.3699 8.33 10.4299 8.35 10.4899C8.53 10.8199 8.84 11.2499 9.28 11.7699C9.73 12.2899 10.21 12.8199 10.73 13.3499C11.27 13.8799 11.79 14.3699 12.32 14.8199C12.84 15.2599 13.27 15.5599 13.61 15.7399C13.66 15.7599 13.72 15.7899 13.79 15.8199C13.87 15.8499 13.95 15.8599 14.04 15.8599C14.21 15.8599 14.34 15.7999 14.45 15.6899L15.21 14.9399C15.46 14.6899 15.7 14.4999 15.93 14.3799C16.16 14.2399 16.39 14.1699 16.64 14.1699C16.83 14.1699 17.03 14.2099 17.25 14.2999C17.47 14.3899 17.7 14.5199 17.95 14.6899L21.26 17.0399C21.52 17.2199 21.7 17.4299 21.81 17.6799C21.91 17.9299 21.97 18.1799 21.97 18.4599Z" stroke="white" stroke-width="1.5" stroke-miterlimit="10"/>
</g>
</svg>

<svg width="24" height="25" fill="none" xmlns="http://www.w3.org/2000/svg"><path d="M21.97 18.46c0 .36-.08.73-.25 1.09-.17.36-.39.7-.68 1.02-.49.54-1.03.93-1.64 1.18-.6.25-1.25.38-1.95.38-1.02 0-2.11-.24-3.26-.73s-2.3-1.15-3.44-1.98a28.754 28.754 0 0 1-3.28-2.8 28.414 28.414 0 0 1-2.79-3.27c-.82-1.14-1.48-2.28-1.96-3.41C2.24 8.8 2 7.71 2 6.67c0-.68.12-1.33.36-1.93.24-.61.62-1.17 1.15-1.67.64-.63 1.34-.94 2.08-.94.28 0 .56.06.81.18.26.12.49.3.67.56l2.32 3.27c.18.25.31.48.4.7.09.21.14.42.14.61 0 .24-.07.48-.21.71-.13.23-.32.47-.56.71l-.76.79c-.11.11-.16.24-.16.4 0 .08.01.15.03.23.03.08.06.14.08.2.18.33.49.76.93 1.28.45.52.93 1.05 1.45 1.58.54.53 1.06 1.02 1.59 1.47.52.44.95.74 1.29.92.05.02.11.05.18.08.08.03.16.04.25.04.17 0 .3-.06.41-.17l.76-.75c.25-.25.49-.44.72-.56.23-.14.46-.21.71-.21.19 0 .39.04.61.13.22.09.45.22.7.39l3.31 2.35c.26.18.44.39.55.64.1.25.16.5.16.78Z" stroke="#fff" stroke-width="1.5" stroke-miterlimit="10"/></svg>
